images/media-partners/fxmag-108-39.svg

<svg width="109" height="39" viewBox="0 0 109 39" fill="none" xmlns="http://www.w3.org/2000/svg">
<path d="M0 0.539062H15.766V5.97418H5.97448V16.5125H13.65V21.9061H5.97448V38.419H0V0.539062Z" fill="#161616"/>
<path d="M23.8536 19.0434L17.3397 0.539062H23.6046L27.6291 12.7785H27.7536L31.861 0.539062H37.5036L30.9068 19.0434L37.794 38.419H31.4876L27.1727 25.2253H27.0483L22.6089 38.419H17.0078L23.8536 19.0434Z" fill="#161616"/>
<path d="M40.5781 0.539062H49.0835L52.859 27.6732H52.9835L56.759 0.539062H65.2644V38.419H59.6633V9.74973H59.5388L55.1824 38.4604H50.2037L45.8888 9.74973H45.7643V38.4604H40.5781V0.539062Z" fill="#161616"/>
<path d="M74.3069 0.539062H82.3559L88.5378 38.419H82.5633L81.4846 30.9094V30.9923H74.7218L73.6431 38.419H68.125L74.3069 0.539062ZM80.8208 25.8891L78.1655 7.17738H78.041L75.4272 25.8891H80.8208Z" fill="#161616"/>
<path d="M90.9023 29.4575V9.54258C90.9023 3.48512 93.9311 0 99.7811 0C105.631 0 108.66 3.48512 108.66 9.54258V12.7788H103.017V9.12769C103.017 6.43087 101.814 5.39363 99.947 5.39363C98.08 5.39363 96.8768 6.43087 96.8768 9.12769V29.8724C96.8768 32.5692 98.08 33.565 99.947 33.565C101.814 33.565 103.017 32.6107 103.017 29.8724V22.4458H100.03V17.0522H108.618V29.4575C108.618 35.515 105.59 39.0001 99.7396 39.0001C93.8896 39.0001 90.9023 35.515 90.9023 29.4575Z" fill="#161616"/>
</svg>

<svg width="109" height="39" fill="none" xmlns="http://www.w3.org/2000/svg"><path d="M0 .54h15.766v5.434H5.974v10.538h7.676v5.394H5.974V38.42H0V.539zm23.854 18.503L17.34.54h6.265l4.024 12.24h.125L31.86.538h5.643l-6.597 18.504 6.887 19.376h-6.306l-4.315-13.194h-.125l-4.44 13.194h-5.6l6.846-19.376zM40.578.54h8.505l3.776 27.133h.124L56.76.54h8.505v37.88h-5.6V9.749h-.125L55.182 38.46h-4.978L45.889 9.75h-.125v28.71h-5.186V.54zm33.729 0h8.049l6.182 37.879h-5.975l-1.078-7.51v.083h-6.763l-1.079 7.427h-5.518L74.307.539zm6.514 25.35L78.165 7.176h-.124L75.427 25.89h5.394zm10.081 3.567V9.543c0-6.058 3.03-9.543 8.88-9.543 5.849 0 8.878 3.485 8.878 9.543v3.236h-5.643V9.128c0-2.697-1.203-3.734-3.07-3.734-1.867 0-3.07 1.037-3.07 3.734v20.744c0 2.697 1.203 3.693 3.07 3.693 1.867 0 3.07-.954 3.07-3.693v-7.426h-2.987v-5.394h8.588v12.405c0 6.058-3.028 9.543-8.878 9.543s-8.838-3.485-8.838-9.543z" fill="#161616"/></svg>
